X:1
T:Title
%%score 1 ( 2 3 )
L:1/8
Q:1/4=93
M:2/4
K:Bb
V:1 treble nm="Grand Piano, Soprano"
V:2 bass nm="Choir Pad, Leaning on Jesus, Crafts"
V:3 bass 
V:1
 [DF]2 [B,D][DF] | [FB]2 [FA][EG] | [DF]4 | [CE]2 [A,C][CE] | [EG]2 [DF][CE] | [B,D]4 | %6
w: By~William~Fiske~Sherwin * *||||||
 [DF]2 [FB][Fc] | [Fd]2 [Ec][DB] | [EG]4 | [Gc]2 [Gc][Gd] | [Ge]2 [Fd][Ec] | [DB]4 | %12
w: ||||||
 [DF][DF] [B,D][CE] | [DF]2 [FB]2 | [EG][FA] [GB][EG] | [EG]2 [DF]2 | [FB]2 [EA][DB] | %17
w: |||||
 [Fc]2 [FB][Fc] | [Fd]2 [Fe][Fd] | [Fc]4 | [Fd]2 [Ec][DB] | [DF]2 [FB][Fc] | [Fd]2 [Fc][=EB] | %23
w: ||||||
 [FB]2 [FA]2 | [FB]2 [FA][EG] | [DF]2 [DB][Ec] | [Fd]2 [DB]>[Ec] | [DB]4- | [DB]4 |] %29
w: ||||||
V:2
 [B,,B,]2 [B,,F,][B,,B,] | [D,B,]2 [E,B,][E,B,] | [B,,B,]4 | [F,A,]2 [F,A,][F,A,] | %4
 [F,A,]2 [F,A,][F,A,] | [B,,B,]4 | [B,,B,]2 [D,B,][F,A,] | B,2 [F,A,][G,B,] | [E,B,]4 | %9
 [E,C]2 [E,C][D,=B,] | [C,C]2 [F,A,][F,A,] | [B,,B,]4 | [B,,B,][B,,B,] [B,,F,]2 | %13
 [B,,B,]2 [D,B,]2 | [E,B,][E,B,] [E,B,]2 | [B,,B,]2 [B,,B,]2 | [D,B,]2 [C,F,][B,,B,] | %17
 [F,A,]2 [F,G,][F,A,] | B,2 [A,C]B, | [F,A,]4 | [B,,B,]2 [B,,F,][B,,F,] | [B,,B,]2 [D,B,][F,A,] | %22
 B,2 [A,C][G,C] | [F,D]2 C-[E,C] | [D,B,]2 [E,B,][E,B,] | [B,,B,]2 [G,B,][G,B,] | [F,B,]2 F,>F, | %27
 [B,,F,]4- | [B,,F,]4 |] %29
V:3
 x4 | x4 | x4 | x4 | x4 | x4 | x4 | x4 | x4 | x4 | x4 | x4 | x4 | x4 | x4 | x4 | x4 | x4 | x4 | %19
 x4 | x4 | x4 | x4 | z2 .F,2 | x4 | x4 | x4 | x4 | x4 |] %29

